X:1
T:Polka Piqu?e
R:Polka
B:Massif Central Tune Book no 1 number 110
M:2/4
L:1/8
N:originally in G
K:C
Gc cB/A/|Ge e2|fe dc|d/e/f ec|Gc cB/A/|Ge e2|fe dc|d/e/d/B/ c2:|
g2 f2|d/e/f/d/ ec|e2 d2|B/c/d/B/ c2|g2 f2|d/e/f/d/ ec|e2 d2|B/c/d/B/ c2:|
<end>
<start>
